;FLAVOR:Marlin
;TIME:4553
;Filament used: 4.27256m
;Layer height: 0.2
;MINX:78.062
;MINY:106.518
;MINZ:0.2
;MAXX:156.373
;MAXY:150.518
;MAXZ:22
;ZOFFSETPROCESSED
;Generated with Cura_SteamEngine 4.6.1
M140 S45
M105
M190 S45
M104 S185
M105
M109 S185
M82 ;absolute extrusion mode
; Ender 3 Custom Start G-code
G92 E0 ; Reset Extruder
G28 ; Home all axes
G1 Z2.0 F3000 ; Move Z Axis up little to prevent scratching of Heat Bed
G1 X0.1 Y20 Z0.3 F5000.0 ; Move to start position
G1 X0.1 Y200.0 Z0.3 F1500.0 E15 ; Draw the first line
G1 X0.4 Y200.0 Z0.3 F5000.0 ; Move to side a little
G1 X0.4 Y20 Z0.3 F1500.0 E30 ; Draw the second line
G92 E0 ; Reset Extruder
G1 Z2.0 F3000 ; Move Z Axis up little to prevent scratching of Heat Bed
G1 X5 Y20 Z0.3 F5000.0 ; Move over to prevent blob squish
G92 E0
G92 E0
G1 F1500 E-2.5
;LAYER_COUNT:110
;LAYER:0
M107
M204 S500
G0 F9000 X79.898 Y107.647 Z0.0 ;adjusted by z offset
G92 Z0.2 ;consider this the original z before offset
M204 S600
;TYPE:SKIRT
G1 F1500 E0
G1 F1800 X80.412 Y107.278 E0.01978
G1 X80.968 Y106.978 E0.03953
G1 X81.557 Y106.75 E0.05928
G1 X82.171 Y106.598 E0.07906
G1 X83.062 Y106.518 E0.10703
G1 X136.936 Y106.518 E1.79137
G1 X137.567 Y106.558 E1.81114
G1 X138.188 Y106.677 E1.83091
G1 X138.788 Y106.874 E1.85065
G1 X139.36 Y107.145 E1.87044
G1 X139.892 Y107.485 E1.89018
G1 X140.377 Y107.891 E1.90995
G1 X140.807 Y108.354 E1.92971
G1 X141.176 Y108.868 E1.94949
G1 X141.476 Y109.424 E1.96924
G1 X141.704 Y110.013 E1.98899
G1 X141.856 Y110.627 E2.00877
G1 X141.936 Y111.518 E2.03673
G1 X141.936 Y111.805 E2.04571
G1 X151.053 Y111.81 E2.33075
G1 X151.684 Y111.85 E2.35051
G1 X152.383 Y111.991 E2.37281
G1 X152.694 Y112.077 E2.3829
G1 X153.291 Y112.284 E2.40265
G1 X153.858 Y112.564 E2.42242
G1 X154.384 Y112.914 E2.44217
G1 X154.863 Y113.327 E2.46195
G1 X155.285 Y113.797 E2.4817
G1 X155.645 Y114.317 E2.50147
G1 X155.936 Y114.878 E2.52123
G1 X156.154 Y115.471 E2.54098
G1 X156.295 Y116.088 E2.56077
G1 X156.361 Y116.851 E2.58471
G1 X156.372 Y118.074 E2.62295
G1 X156.373 Y139.102 E3.28038
G1 X156.333 Y139.733 E3.30015
G1 X156.214 Y140.353 E3.31989
G1 X156.017 Y140.954 E3.33966
G1 X155.746 Y141.525 E3.35942
G1 X155.406 Y142.058 E3.37919
G1 X155.001 Y142.543 E3.39894
G1 X154.537 Y142.973 E3.41872
G1 X154.024 Y143.342 E3.43848
G1 X153.468 Y143.642 E3.45823
G1 X152.926 Y143.855 E3.47644
G1 X152.672 Y143.938 E3.48479
G1 X152.06 Y144.096 E3.50455
G1 X151.645 Y144.157 E3.51767
G1 X151.475 Y144.175 E3.52301
G1 X150.949 Y144.203 E3.53948
G1 X143.062 Y144.203 E3.78606
G1 X143.062 Y145.511 E3.82696
G1 X143.022 Y146.142 E3.84672
G1 X142.903 Y146.763 E3.86649
G1 X142.706 Y147.363 E3.88624
G1 X142.435 Y147.935 E3.90602
G1 X142.095 Y148.467 E3.92576
G1 X141.689 Y148.952 E3.94554
G1 X141.226 Y149.382 E3.96529
G1 X140.712 Y149.751 E3.98508
G1 X140.156 Y150.051 E4.00483
G1 X139.567 Y150.279 E4.02458
G1 X138.953 Y150.431 E4.04435
G1 X138.063 Y150.511 E4.07229
G1 X83.063 Y150.518 E5.79184
G1 X82.432 Y150.478 E5.81161
G1 X81.811 Y150.359 E5.83137
G1 X81.21 Y150.162 E5.85115
G1 X80.639 Y149.892 E5.87089
G1 X80.106 Y149.551 E5.89068
G1 X79.621 Y149.146 E5.91043
G1 X79.191 Y148.683 E5.93019
G1 X78.823 Y148.169 E5.94995
G1 X78.522 Y147.613 E5.96972
G1 X78.294 Y147.023 E5.98949
G1 X78.142 Y146.41 E6.00924
G1 X78.062 Y145.518 E6.03724
G1 X78.062 Y111.518 E7.10023
G1 X78.102 Y110.887 E7.12
G1 X78.221 Y110.266 E7.13977
G1 X78.418 Y109.666 E7.15951
G1 X78.689 Y109.094 E7.1793
G1 X79.029 Y108.562 E7.19904
G1 X79.435 Y108.077 E7.21882
G1 X79.898 Y107.647 E7.23857
M204 S500
G0 F9000 X80.287 Y107.849
M204 S600
G1 F1800 X80.794 Y107.516 E7.25754
G1 X81.34 Y107.252 E7.2765
G1 X81.916 Y107.063 E7.29545
G1 X82.512 Y106.951 E7.31441
G1 X83.062 Y106.918 E7.33164
G1 X136.936 Y106.918 E9.01598
G1 X137.541 Y106.958 E9.03494
G1 X138.135 Y107.077 E9.05388
G1 X138.709 Y107.273 E9.07284
G1 X139.252 Y107.544 E9.09181
G1 X139.755 Y107.883 E9.11078
G1 X140.208 Y108.285 E9.12971
G1 X140.605 Y108.743 E9.14866
G1 X140.938 Y109.25 E9.16763
G1 X141.202 Y109.796 E9.18659
G1 X141.391 Y110.372 E9.20554
G1 X141.503 Y110.968 E9.2245
G1 X141.536 Y111.518 E9.24173
G1 X141.536 Y112.205 E9.26321
G1 X151.053 Y112.21 E9.56075
G1 X151.658 Y112.25 E9.57971
G1 X152.276 Y112.376 E9.59943
G1 X152.587 Y112.462 E9.60952
G1 X153.159 Y112.662 E9.62846
G1 X153.701 Y112.935 E9.64743
G1 X154.201 Y113.278 E9.66639
G1 X154.652 Y113.683 E9.68534
G1 X155.046 Y114.143 E9.70428
G1 X155.376 Y114.652 E9.72324
G1 X155.637 Y115.2 E9.74222
G1 X155.823 Y115.777 E9.76117
G1 X155.931 Y116.373 E9.78011
G1 X155.961 Y116.855 E9.79521
G1 X155.972 Y118.078 E9.83345
G1 X155.973 Y139.102 E10.49075
G1 X155.933 Y139.707 E10.50971
G1 X155.814 Y140.301 E10.52865
G1 X155.618 Y140.875 E10.54761
G1 X155.348 Y141.418 E10.56657
G1 X155.009 Y141.92 E10.58551
G1 X154.606 Y142.374 E10.60449
G1 X154.148 Y142.771 E10.62344
G1 X153.641 Y143.104 E10.64241
G1 X153.095 Y143.367 E10.66135
G1 X152.802 Y143.474 E10.67111
G1 X152.548 Y143.557 E10.67946
G1 X151.96 Y143.707 E10.69843
G1 X151.603 Y143.759 E10.70971
G1 X151.433 Y143.777 E10.71506
G1 X150.949 Y143.803 E10.73021
G1 X142.662 Y143.803 E10.9893
G1 X142.662 Y145.511 E11.0427
G1 X142.622 Y146.116 E11.06165
G1 X142.503 Y146.71 E11.08059
G1 X142.307 Y147.284 E11.09956
G1 X142.036 Y147.827 E11.11853
G1 X141.697 Y148.33 E11.1375
G1 X141.295 Y148.783 E11.15643
G1 X140.837 Y149.18 E11.17538
G1 X140.33 Y149.513 E11.19435
G1 X139.784 Y149.777 E11.21331
G1 X139.208 Y149.966 E11.23226
G1 X138.612 Y150.078 E11.25122
G1 X138.063 Y150.111 E11.26841
G1 X83.063 Y150.118 E12.98796
G1 X82.458 Y150.078 E13.00692
G1 X81.863 Y149.959 E13.02589
G1 X81.289 Y149.763 E13.04485
G1 X80.747 Y149.493 E13.06379
G1 X80.244 Y149.154 E13.08275
G1 X79.79 Y148.752 E13.10171
G1 X79.393 Y148.293 E13.12068
G1 X79.06 Y147.787 E13.13962
G1 X78.797 Y147.241 E13.15857
G1 X78.607 Y146.665 E13.17753
G1 X78.495 Y146.069 E13.19649
G1 X78.462 Y145.518 E13.21375
G1 X78.462 Y111.518 E14.27674
G1 X78.502 Y110.913 E14.2957
G1 X78.621 Y110.319 E14.31464
G1 X78.817 Y109.745 E14.3336
G1 X79.088 Y109.202 E14.35258
G1 X79.427 Y108.699 E14.37154
G1 X79.829 Y108.246 E14.39047
G1 X80.287 Y107.849 E14.40942
M204 S500
G0 F9000 X80.222 Y108.424
M204 S600
G1 F1800 X80.675 Y108.062 E14.42755
G1 X81.173 Y107.767 E14.44565
G1 X81.707 Y107.542 E14.46377
G1 X82.267 Y107.394 E14.48188
G1 X83.062 Y107.318 E14.50685
G1 X136.936 Y107.318 E16.19119
G1 X137.514 Y107.358 E16.2093
G1 X138.081 Y107.477 E16.22742
G1 X138.626 Y107.673 E16.24553
G1 X139.139 Y107.942 E16.26364
G1 X139.61 Y108.279 E16.28174
G1 X140.03 Y108.678 E16.29985
G1 X140.392 Y109.131 E16.31798
G1 X140.687 Y109.629 E16.33608
G1 X140.912 Y110.163 E16.3542
G1 X141.06 Y110.723 E16.37231
G1 X141.136 Y111.518 E16.39727
G1 X141.136 Y112.604 E16.43123
G1 X151.052 Y112.61 E16.74125
G1 X151.63 Y112.65 E16.75936
G1 X152.169 Y112.762 E16.77657
G1 X152.48 Y112.848 E16.78666
G1 X153.027 Y113.04 E16.80479
G1 X153.541 Y113.306 E16.82288
G1 X154.015 Y113.641 E16.84103
G1 X154.437 Y114.037 E16.85912
G1 X154.802 Y114.487 E16.87723
G1 X155.1 Y114.984 E16.89535
G1 X155.328 Y115.516 E16.91345
G1 X155.48 Y116.075 E16.93156
G1 X155.561 Y116.858 E16.95617
G1 X155.572 Y118.081 E16.99441
G1 X155.573 Y139.102 E17.65162
G1 X155.533 Y139.68 E17.66973
G1 X155.414 Y140.247 E17.68785
G1 X155.218 Y140.792 E17.70595
G1 X154.949 Y141.305 E17.72406
G1 X154.612 Y141.776 E17.74217
G1 X154.213 Y142.196 E17.76028
G1 X153.76 Y142.558 E17.77841
G1 X153.262 Y142.853 E17.79651
G1 X152.678 Y143.094 E17.81626
G1 X152.424 Y143.177 E17.82462
G1 X151.862 Y143.319 E17.84274
G1 X151.561 Y143.362 E17.85224
G1 X151.391 Y143.38 E17.85759
G1 X150.949 Y143.403 E17.87143
G1 X142.262 Y143.403 E18.14302
G1 X142.262 Y145.511 E18.20893
G1 X142.222 Y146.089 E18.22704
G1 X142.103 Y146.656 E18.24515
G1 X141.907 Y147.201 E18.26326
G1 X141.638 Y147.714 E18.28137
G1 X141.301 Y148.185 E18.29948
G1 X140.902 Y148.605 E18.31759
G1 X140.449 Y148.967 E18.33572
G1 X139.951 Y149.262 E18.35382
G1 X139.417 Y149.487 E18.37193
G1 X138.857 Y149.635 E18.39004
G1 X138.063 Y149.711 E18.41498
G1 X83.063 Y149.718 E20.13453
G1 X82.485 Y149.678 E20.15264
G1 X81.918 Y149.559 E20.17076
G1 X81.372 Y149.363 E20.18889
G1 X80.859 Y149.094 E20.207
G1 X80.388 Y148.757 E20.22511
G1 X79.968 Y148.358 E20.24322
G1 X79.607 Y147.906 E20.26131
G1 X79.311 Y147.407 E20.27945
G1 X79.087 Y146.873 E20.29755
G1 X78.938 Y146.313 E20.31567
G1 X78.862 Y145.518 E20.34064
G1 X78.862 Y111.518 E21.40363
G1 X78.902 Y110.94 E21.42175
G1 X79.021 Y110.373 E21.43986
G1 X79.217 Y109.828 E21.45797
G1 X79.486 Y109.315 E21.47608
G1 X79.823 Y108.844 E21.49418
G1 X80.222 Y108.424 E21.51229
M204 S500
G0 F9000 X80.614 Y108.612
M204 S600
G1 F1800 X81.06 Y108.288 E21.52953
G1 X81.548 Y108.033 E21.54674
G1 X82.068 Y107.85 E21.56398
G1 X82.609 Y107.745 E21.58121
G1 X83.062 Y107.718 E21.5954
G1 X136.936 Y107.718 E23.27974
G1 X137.486 Y107.758 E23.29698
G1 X138.024 Y107.877 E23.31421
G1 X138.539 Y108.073 E23.33144
G1 X139.02 Y108.341 E23.34865
G1 X139.458 Y108.675 E23.36587
G1 X139.842 Y109.07 E23.3831
G1 X140.166 Y109.516 E23.40033
G1 X140.421 Y110.004 E23.41755
G1 X140.604 Y110.524 E23.43478
G1 X140.709 Y111.065 E23.45201
G1 X140.736 Y111.518 E23.4662
G1 X140.736 Y113.004 E23.51266
G1 X151.052 Y113.01 E23.83518
G1 X151.602 Y113.05 E23.85242
G1 X152.063 Y113.147 E23.86715
G1 X152.374 Y113.233 E23.87724
G1 X152.893 Y113.418 E23.89447
G1 X153.38 Y113.677 E23.91171
G1 X153.824 Y114.002 E23.92892
G1 X154.217 Y114.389 E23.94616
G1 X154.549 Y114.828 E23.96337
G1 X154.815 Y115.311 E23.98061
G1 X155.008 Y115.827 E23.99783
G1 X155.124 Y116.366 E24.01507
G1 X155.161 Y116.862 E24.03062
G1 X155.172 Y118.085 E24.06886
G1 X155.173 Y139.102 E24.72594
G1 X155.133 Y139.651 E24.74315
G1 X155.014 Y140.189 E24.76038
G1 X154.819 Y140.705 E24.77763
G1 X154.551 Y141.186 E24.79484
G1 X154.216 Y141.624 E24.81208
G1 X153.821 Y142.008 E24.8293
G1 X153.375 Y142.332 E24.84654
G1 X152.887 Y142.587 E24.86375
G1 X152.553 Y142.714 E24.87493
G1 X152.299 Y142.797 E24.88328
G1 X151.519 Y142.964 E24.90822
G1 X151.349 Y142.982 E24.91356
G1 X150.949 Y143.003 E24.92609
G1 X141.862 Y143.003 E25.21019
G1 X141.862 Y145.511 E25.2886
G1 X141.822 Y146.061 E25.30584
G1 X141.703 Y146.599 E25.32307
G1 X141.507 Y147.114 E25.34029
G1 X141.239 Y147.595 E25.35751
G1 X140.905 Y148.033 E25.37473
G1 X140.51 Y148.417 E25.39195
G1 X140.064 Y148.741 E25.40919
G1 X139.576 Y148.996 E25.4264
G1 X139.056 Y149.179 E25.44364
G1 X138.515 Y149.284 E25.46087
G1 X138.062 Y149.311 E25.47506
G1 X83.062 Y149.318 E27.19461
G1 X82.513 Y149.278 E27.21181
G1 X81.975 Y149.159 E27.22904
G1 X81.46 Y148.964 E27.24626
G1 X80.978 Y148.696 E27.2635
G1 X80.541 Y148.361 E27.28072
G1 X80.156 Y147.966 E27.29796
G1 X79.832 Y147.52 E27.3152
G1 X79.577 Y147.032 E27.33241
G1 X79.394 Y146.512 E27.34965
G1 X79.289 Y145.972 E27.36684
G1 X79.262 Y145.518 E27.38106
G1 X79.262 Y111.518 E28.44406
G1 X79.302 Y110.968 E28.4613
G1 X79.421 Y110.43 E28.47853
G1 X79.617 Y109.915 E28.49575
G1 X79.885 Y109.434 E28.51297
G1 X80.219 Y108.996 E28.53019
G1 X80.614 Y108.612 E28.54741
M204 S500
G0 F9000 X81.004 Y108.812
M204 S600
G1 F1800 X81.442 Y108.529 E28.56372
G1 X81.917 Y108.316 E28.57999
G1 X82.42 Y108.179 E28.59629
G1 X83.062 Y108.118 E28.61645
G1 X136.936 Y108.118 E30.3008
G1 X137.456 Y108.158 E30.3171
G1 X137.963 Y108.277 E30.33339
G1 X138.446 Y108.472 E30.34967
G1 X138.894 Y108.738 E30.36596
G1 X139.296 Y109.07 E30.38226
G1 X139.642 Y109.46 E30.39856
G1 X139.925 Y109.898 E30.41486
G1 X140.138 Y110.373 E30.43114
G1 X140.275 Y110.876 E30.44744
G1 X140.336 Y111.518 E30.4676
G1 X140.336 Y113.404 E30.52657
G1 X151.052 Y113.41 E30.8616
G1 X151.572 Y113.45 E30.8779
G1 X151.956 Y113.533 E30.89018
G1 X152.267 Y113.619 E30.90027
G1 X152.757 Y113.796 E30.91656
G1 X153.215 Y114.046 E30.93287
G1 X153.629 Y114.363 E30.94918
G1 X153.989 Y114.739 E30.96545
G1 X154.288 Y115.166 E30.98175
G1 X154.518 Y115.634 E30.99805
G1 X154.674 Y116.131 E31.01434
G1 X154.761 Y116.865 E31.03745
G1 X154.772 Y118.088 E31.07569
G1 X154.773 Y139.102 E31.73268
G1 X154.733 Y139.621 E31.74895
G1 X154.614 Y140.129 E31.76526
G1 X154.419 Y140.612 E31.78155
G1 X154.153 Y141.06 E31.79784
G1 X153.821 Y141.462 E31.81414
G1 X153.431 Y141.808 E31.83044
G1 X152.994 Y142.091 E31.84672
G1 X152.429 Y142.334 E31.86595
G1 X152.175 Y142.417 E31.8743
G1 X151.477 Y142.566 E31.89661
G1 X151.307 Y142.584 E31.90196
G1 X150.949 Y142.603 E31.91317
G1 X141.462 Y142.603 E32.20977
G1 X141.462 Y145.511 E32.30069
G1 X141.422 Y146.031 E32.317
G1 X141.303 Y146.538 E32.33328
G1 X141.108 Y147.021 E32.34956
G1 X140.842 Y147.469 E32.36585
G1 X140.51 Y147.871 E32.38215
G1 X140.12 Y148.217 E32.39845
G1 X139.682 Y148.5 E32.41476
G1 X139.207 Y148.713 E32.43103
G1 X138.704 Y148.85 E32.44733
G1 X138.062 Y148.911 E32.46749
G1 X83.062 Y148.918 E34.18704
G1 X82.543 Y148.878 E34.20332
G1 X82.035 Y148.759 E34.21963
G1 X81.552 Y148.564 E34.23591
G1 X81.104 Y148.298 E34.2522
G1 X80.702 Y147.966 E34.2685
G1 X80.356 Y147.577 E34.28478
G1 X80.073 Y147.139 E34.30108
G1 X79.861 Y146.663 E34.31738
G1 X79.723 Y146.16 E34.33368
G1 X79.662 Y145.518 E34.35385
G1 X79.662 Y111.518 E35.41684
G1 X79.702 Y110.998 E35.43314
G1 X79.821 Y110.491 E35.44943
G1 X80.016 Y110.008 E35.46571
G1 X80.282 Y109.56 E35.482
G1 X80.614 Y109.158 E35.4983
G1 X81.004 Y108.812 E35.5146
M204 S500
G0 F9000 X81.008 Y109.331
M204 S600
G1 F1800 X81.391 Y109.026 E35.52991
G1 X81.819 Y108.788 E35.54522
G1 X82.279 Y108.622 E35.56051
G1 X82.76 Y108.533 E35.5758
G1 X83.062 Y108.518 E35.58526
G1 X136.936 Y108.518 E37.2696
G1 X137.424 Y108.558 E37.28491
G1 X137.899 Y108.677 E37.30022
G1 X138.348 Y108.871 E37.31551
G1 X138.76 Y109.136 E37.33083
G1 X139.123 Y109.464 E37.34612
G1 X139.428 Y109.847 E37.36143
G1 X139.666 Y110.275 E37.37674
G1 X139.832 Y110.735 E37.39203
G1 X139.921 Y111.216 E37.40732
G1 X139.936 Y111.518 E37.41678
G1 X139.936 Y113.804 E37.48825
G1 X151.052 Y113.81 E37.83578
G1 X151.54 Y113.85 E37.85109
G1 X151.85 Y113.919 E37.86102
G1 X152.161 Y114.005 E37.87111
G1 X152.62 Y114.173 E37.88639
G1 X153.046 Y114.414 E37.90169
G1 X153.427 Y114.721 E37.91699
G1 X153.754 Y115.086 E37.93231
G1 X154.016 Y115.499 E37.9476
G1 X154.208 Y115.95 E37.96293
G1 X154.324 Y116.425 E37.97822
G1 X154.361 Y116.869 E37.99215
G1 X154.372 Y118.092 E38.03038
G1 X154.373 Y139.102 E38.68725
G1 X154.333 Y139.59 E38.70256
G1 X154.214 Y140.065 E38.71787
G1 X154.02 Y140.514 E38.73316
G1 X153.755 Y140.926 E38.74848
G1 X153.427 Y141.289 E38.76377
G1 X153.044 Y141.594 E38.77908
G1 X152.617 Y141.832 E38.79436
G1 X152.305 Y141.954 E38.80484
G1 X152.051 Y142.037 E38.81319
G1 X151.435 Y142.168 E38.83288
G1 X151.265 Y142.186 E38.83823
G1 X150.949 Y142.203 E38.84812
G1 X141.062 Y142.203 E39.15723
G1 X141.062 Y145.511 E39.26066
G1 X141.022 Y145.999 E39.27596
G1 X140.903 Y146.474 E39.29127
G1 X140.709 Y146.923 E39.30657
G1 X140.444 Y147.335 E39.32188
G1 X140.116 Y147.698 E39.33718
G1 X139.733 Y148.003 E39.35248
G1 X139.305 Y148.241 E39.36779
G1 X138.845 Y148.407 E39.38308
G1 X138.364 Y148.496 E39.39838
G1 X138.062 Y148.511 E39.40783
G1 X83.062 Y148.518 E41.12738
G1 X82.575 Y148.478 E41.14266
G1 X82.1 Y148.359 E41.15797
G1 X81.65 Y148.165 E41.17329
G1 X81.239 Y147.9 E41.18858
G1 X80.876 Y147.572 E41.20387
G1 X80.571 Y147.189 E41.21918
G1 X80.332 Y146.762 E41.23448
G1 X80.166 Y146.301 E41.2498
G1 X80.077 Y145.82 E41.26509
G1 X80.062 Y145.518 E41.27454
G1 X80.062 Y111.518 E42.33754
G1 X80.102 Y111.03 E42.35285
G1 X80.221 Y110.555 E42.36816
G1 X80.415 Y110.106 E42.38345
G1 X80.68 Y109.694 E42.39876
